X:1
T:Title
%%score { ( 1 4 ) | ( 2 3 ) }
L:1/8
M:4/4
K:F
V:1 treble nm="Grand Piano"
V:4 treble 
V:2 bass 
V:3 bass 
V:1
 z4 z2[Q:1/4=100] AB | c2 cd c2 [GB]G | F2 E2 F2 A2 | [EG]2 [FA]2 [GB][EG][Ac]B |[M:3/4] A6 | %5
[M:1/4] AB |[M:4/4] c2 cd c2 [GB]G | [CF]2 [CEG]2 [CFA]2 [CFA]2 | [CEG]2 [Gc]2 d2 c=B | %9
[M:2/4] [Ec]4 | [Ec]3 [GB] |[M:4/4] A<A A>A A2 AA | B2 c2 d2 d2 | c2 cd e2 d2 |[M:2/4] [Ec]4 | %15
 [Ec]3 [GB] |[M:4/4] A<A A>A A2 A[^CGA] |[M:9/8] [DFB]2 [_EFc]- [EFc] [DFd]2- [DFd] [FBd]2 | %18
[M:4/4] [FAc]2 [CFc]2 [Ac]A [B,EG]2 |[M:3/4] [A,F]6 |] %20
V:2
 z4 z2 [F,F]2 | [F,A,F]2 A,B, [F,A,F]2 z E | [D,A,]2 [C,B,C]2 [F,A,C]2 [F,CF]2 | %3
 [C,C]2 [C,C]2 [C,C]2 z[K:treble] G |[M:3/4] [F,CF]6 |[M:1/4] [F,F]2 | %6
[M:4/4] [F,A,F]2[K:bass] A,B, [F,A,F]2 z E | A,,2 C,2 F,2 F,2 | C,2 [E,G,]2 [F,A,F]2 ED | %9
[M:2/4] [C,G,]4 | [C,G,]3 [C,C] | %11
[M:4/4][K:treble] [F,CF]<[F,CF] [F,CF]>[F,CF] [F,CF]2 [F,CF][F,CF] | %12
 [G,CE]2 [A,CF]2 [B,F]2 [B,F]2 | [A,CF]2[K:bass] [E,G,][F,A,][K:treble] [G,CG]2 [G,F]2 | %14
[M:2/4][K:bass] [C,G,]4 | [C,A,]3 [C,C] |[M:4/4] [F,CF]<[F,CF] [F,CF]>[F,CF] [F,CF]2 [F,CF]E, | %17
[M:9/8] D,2 C,- C, B,,2- B,, D,2 |[M:4/4] z4[K:treble] C2[K:bass] z2 |[M:3/4] F,6 |] %20
V:3
 z4 z2 z G, | z2 [F,F]2 z2 [C,B,]2 | x8 | z4 z2 [C,C]2[K:treble] |[M:3/4] x6 |[M:1/4] z G, | %6
[M:4/4] z2[K:bass] [F,F]2 z2 [B,,B,]2 | x8 | z4 z2 G,2 |[M:2/4] x4 | x4 |[M:4/4][K:treble] x8 | %12
 x8 | x2[K:bass] x2[K:treble] x4 |[M:2/4][K:bass] x4 | x4 |[M:4/4] x8 |[M:9/8] x9 | %18
[M:4/4] F,2[K:treble] A,2 z F[K:bass] C,2 |[M:3/4] x6 |] %20
V:4
 x8 | x8 | x8 | x8 |[M:3/4] x6 |[M:1/4] x2 |[M:4/4] x8 | x8 | x8 |[M:2/4] x4 | x4 |[M:4/4] x8 | %12
 x8 | z2 G2 z4 |[M:2/4] x4 | x4 |[M:4/4] x8 |[M:9/8] x9 |[M:4/4] x8 |[M:3/4] x6 |] %20

